Yosa-Max-Dark/actions/22x22/view-calendar-upcoming-days.svg

<?xml version="1.0" encoding="UTF-8"?>
<svg id="svg4" version="1.1" viewBox="0 0 22 22" xmlns="http://www.w3.org/2000/svg">
 <defs id="defs8">
  <style id="current-color-scheme" type="text/css">.ColorScheme-Text {
        color:#dfdfdf;
      }</style>
  <style id="current-color-scheme-5" type="text/css">.ColorScheme-Text {
        color:#dfdfdf;
      }</style>
 </defs>
 <path id="rect817" d="m2.9999996 3.0000001v16h16v-16zm1 1h14v14h-14z" style="fill:#dfdfdf;paint-order:stroke fill markers"/>
 <rect id="rect824" x="2.9999998" y="6" width="16" height="2" style="fill:#dfdfdf;paint-order:stroke fill markers"/>
 <g id="g828" transform="translate(0,-2)">
  <rect id="rect858" x="5.9999995" y="14" width="2" height="2" style="fill:#dfdfdf;paint-order:stroke fill markers"/>
  <rect id="rect860" x="10" y="14" width="2" height="2" style="fill:#dfdfdf;paint-order:stroke fill markers"/>
  <rect id="rect866" x="14" y="14" width="2" height="2" style="fill:#dfdfdf;paint-order:stroke fill markers"/>
 </g>
 <path id="rect834" d="m1.9999999 2.0000001v18h18v-18zm2 2h14v14h-14z" style="fill:#dfdfdf;paint-order:stroke fill markers"/>
</svg>

<?xml version="1.0" encoding="UTF-8" standalone="no"?>
<svg
   xmlns:dc="http://purl.org/dc/elements/1.1/"
   xmlns:cc="http://creativecommons.org/ns#"
   xmlns:rdf="http://www.w3.org/1999/02/22-rdf-syntax-ns#"
   xmlns:svg="http://www.w3.org/2000/svg"
   xmlns="http://www.w3.org/2000/svg"
   xmlns:sodipodi="http://sodipodi.sourceforge.net/DTD/sodipodi-0.dtd"
   xmlns:inkscape="http://www.inkscape.org/namespaces/inkscape"
   viewBox="0 0 22 22"
   version="1.1"
   id="svg4"
   sodipodi:docname="view-calendar-week.svg"
   inkscape:version="0.92.2 2405546, 2018-03-11">
  <metadata
     id="metadata10">
    <rdf:RDF>
      <cc:Work
         rdf:about="">
        <dc:format>image/svg+xml</dc:format>
        <dc:type
           rdf:resource="http://purl.org/dc/dcmitype/StillImage" />
        <dc:title></dc:title>
      </cc:Work>
    </rdf:RDF>
  </metadata>
  <defs
     id="defs8">
    <style
       id="current-color-scheme"
       type="text/css">
      .ColorScheme-Text {
        color:#dfdfdf;
      }
      </style>
    <style
       type="text/css"
       id="current-color-scheme-5">
      .ColorScheme-Text {
        color:#dfdfdf;
      }
      </style>
  </defs>
  <sodipodi:namedview
     pagecolor="#ffffff"
     bordercolor="#666666"
     borderopacity="1"
     objecttolerance="10"
     gridtolerance="10"
     guidetolerance="10"
     inkscape:pageopacity="0"
     inkscape:pageshadow="2"
     inkscape:window-width="1366"
     inkscape:window-height="701"
     id="namedview6"
     showgrid="false"
     inkscape:zoom="22.227273"
     inkscape:cx="5.4061642"
     inkscape:cy="11"
     inkscape:window-x="0"
     inkscape:window-y="0"
     inkscape:window-maximized="1"
     inkscape:current-layer="svg4"
     inkscape:snap-bbox="true"
     inkscape:bbox-nodes="true"
     inkscape:snap-bbox-edge-midpoints="true"
     inkscape:snap-bbox-midpoints="true"
     inkscape:bbox-paths="true"
     inkscape:object-paths="true"
     inkscape:snap-intersection-paths="true" />
  <path
     inkscape:connector-curvature="0"
     style="opacity:1;vector-effect:none;fill:#dfdfdf;fill-opacity:1;stroke:none;stroke-width:2.99999976;stroke-linecap:butt;stroke-linejoin:miter;stroke-miterlimit:4;stroke-dasharray:none;stroke-dashoffset:0;stroke-opacity:0.8539823;paint-order:stroke fill markers"
     d="M 2.9999996,3.0000001 V 19 H 19 V 3.0000001 Z m 1,1 H 18 V 18 H 3.9999996 Z"
     id="rect817" />
  <rect
     style="opacity:1;vector-effect:none;fill:#dfdfdf;fill-opacity:1;stroke:none;stroke-width:3.00000048;stroke-linecap:butt;stroke-linejoin:miter;stroke-miterlimit:4;stroke-dasharray:none;stroke-dashoffset:0;stroke-opacity:0.8539823;paint-order:stroke fill markers"
     id="rect824"
     width="16"
     height="2"
     x="2.9999998"
     y="6" />
  <g
     id="g828"
     transform="translate(0,-2)">
    <rect
       y="14"
       x="5.9999995"
       height="2"
       width="2"
       id="rect858"
       style="opacity:1;vector-effect:none;fill:#dfdfdf;fill-opacity:1;stroke:none;stroke-width:3;stroke-linecap:butt;stroke-linejoin:miter;stroke-miterlimit:4;stroke-dasharray:none;stroke-dashoffset:0;stroke-opacity:0.8539823;paint-order:stroke fill markers" />
    <rect
       style="opacity:1;vector-effect:none;fill:#dfdfdf;fill-opacity:1;stroke:none;stroke-width:3;stroke-linecap:butt;stroke-linejoin:miter;stroke-miterlimit:4;stroke-dasharray:none;stroke-dashoffset:0;stroke-opacity:0.8539823;paint-order:stroke fill markers"
       id="rect860"
       width="2"
       height="2"
       x="10"
       y="14" />
    <rect
       style="opacity:1;vector-effect:none;fill:#dfdfdf;fill-opacity:1;stroke:none;stroke-width:3;stroke-linecap:butt;stroke-linejoin:miter;stroke-miterlimit:4;stroke-dasharray:none;stroke-dashoffset:0;stroke-opacity:0.8539823;paint-order:stroke fill markers"
       id="rect866"
       width="2"
       height="2"
       x="14"
       y="14" />
  </g>
  <path
     style="opacity:1;vector-effect:none;fill:#dfdfdf;fill-opacity:1;stroke:none;stroke-width:2;stroke-linecap:butt;stroke-linejoin:miter;stroke-miterlimit:4;stroke-dasharray:none;stroke-dashoffset:0;stroke-opacity:1;paint-order:stroke fill markers"
     d="M 1.9999999,2.0000001 V 20 H 20 V 2.0000001 Z m 2,2 H 18 V 18 H 3.9999999 Z"
     id="rect834"
     inkscape:connector-curvature="0" />
</svg>
